X:112
T:Kilfodda
M:C
L:1/8
K:G Major
eed|BedB AdBA|GBAG EAGE|DB,B,2 DEGA|BGG2 ABcA|!
BedB A2BA|G2AG EAGE|DB,B,2 DEGA|BdAF G:|!
ABc|d2Bd cBAF|G2BG AGEG|DGFG eGdG|cBAG FGAB|!
cBce dBAG|edef gdBG|DGBG EGce|dBAB G:|!
